src/assets/media/svg/sprite/get-information.svg

<svg width="24" height="24" viewBox="0 0 24 24"  xmlns="http://www.w3.org/2000/svg">
<path d="M12 1C5.926 1 1 5.926 1 12C1 18.074 5.926 23 12 23C18.074 23 23 18.074 23 12C23 5.926 18.074 1 12 1ZM11.5 6C11.898 6.00013 12.2796 6.15835 12.5609 6.43984C12.8422 6.72133 13.0001 7.10304 13 7.501C12.9999 7.89896 12.8417 8.28056 12.5602 8.56187C12.2787 8.84317 11.897 9.00113 11.499 9.001C11.101 9.00087 10.7194 8.84265 10.4381 8.56116C10.1568 8.27967 9.99887 7.89796 9.999 7.5C9.99913 7.10204 10.1573 6.72044 10.4388 6.43913C10.7203 6.15783 11.102 5.99987 11.5 6ZM15 18H9V16H11V12H9V10H13V16H15V18Z" />
</svg>

<svg xmlns="http://www.w3.org/2000/svg" width="24" height="24"><path d="M12 1C5.926 1 1 5.926 1 12s4.926 11 11 11 11-4.926 11-11S18.074 1 12 1m-.5 5a1.5 1.5 0 1 1 0 3.001A1.5 1.5 0 0 1 11.5 6M15 18H9v-2h2v-4H9v-2h4v6h2z"/></svg>
